src/cmd/sc_tablenumberformatdialog.svg

<svg viewBox="0 0 16 16" xmlns="http://www.w3.org/2000/svg"><path d="m8 2c-3.3137085 0-6 2.6862915-6 6 0 2.219342 1.2086065 4.151507 3 5.189453v-1.212891c-1.2072508-.912772-2-2.3464292-2-3.976562 0-2.7614237 2.2385763-5 5-5 2.761424 0 5 2.2385763 5 5-.0018 1.3381116-.802816 1.6006344-2 1.8828125v-4.8828125h-1v.7695312c-.5491933-.4939868-1.2613297-.7679924-2-.7695312-1.6568542 0-3 1.3431458-3 3s1.3431458 3 3 3c.7384127-.001 1.4505172-.2743 2-.767578v.501953.265625c2.209139 0 4-1.0768757 4-3 0-3.3137085-2.686292-6-6-6zm0 4c1.1045695 0 2 .8954305 2 2s-.8954305 2-2 2-2-.8954305-2-2 .8954305-2 2-2z" fill="#232629"/><path d="m7 12c-.55229 0-1 .44772-1 1 0 .55229.44771 1 1 1 .55228 0 1-.44771 1-1 0-.55228-.44772-1-1-1zm3 0c-.55229 0-1 .44772-1 1 0 .55229.44771 1 1 1 .55228 0 1-.44771 1-1 0-.55228-.44772-1-1-1zm3 0c-.55229 0-1 .44772-1 1 0 .55229.44771 1 1 1 .55228 0 1-.44771 1-1 0-.55228-.44772-1-1-1z" fill="#e95420"/></svg>

<?xml version="1.0" encoding="UTF-8" standalone="no"?>
<svg
   xmlns:dc="http://purl.org/dc/elements/1.1/"
   xmlns:cc="http://creativecommons.org/ns#"
   xmlns:rdf="http://www.w3.org/1999/02/22-rdf-syntax-ns#"
   xmlns:svg="http://www.w3.org/2000/svg"
   xmlns="http://www.w3.org/2000/svg"
   xmlns:sodipodi="http://sodipodi.sourceforge.net/DTD/sodipodi-0.dtd"
   xmlns:inkscape="http://www.inkscape.org/namespaces/inkscape"
   viewBox="0 0 16 16"
   version="1.1"
   id="svg6"
   sodipodi:docname="sc_tablenumberformatdialog.svg"
   inkscape:version="0.92.4 (5da689c313, 2019-01-14)">
  <metadata
     id="metadata12">
    <rdf:RDF>
      <cc:Work
         rdf:about="">
        <dc:format>image/svg+xml</dc:format>
        <dc:type
           rdf:resource="http://purl.org/dc/dcmitype/StillImage" />
      </cc:Work>
    </rdf:RDF>
  </metadata>
  <defs
     id="defs10" />
  <sodipodi:namedview
     pagecolor="#ffffff"
     bordercolor="#666666"
     borderopacity="1"
     objecttolerance="10"
     gridtolerance="10"
     guidetolerance="10"
     inkscape:pageopacity="0"
     inkscape:pageshadow="2"
     inkscape:window-width="1920"
     inkscape:window-height="1011"
     id="namedview8"
     showgrid="true"
     inkscape:zoom="41.7193"
     inkscape:cx="2.1224124"
     inkscape:cy="9.1298714"
     inkscape:window-x="0"
     inkscape:window-y="32"
     inkscape:window-maximized="1"
     inkscape:current-layer="svg6">
    <inkscape:grid
       type="xygrid"
       id="grid822" />
  </sodipodi:namedview>
  <path
     style="fill:#232629"
     d="M 7.7714844 2.0058594 A 6 6 0 0 0 2.8046875 5 A 6 6 0 0 0 3.7578125 12.242188 A 6 6 0 0 0 11 13.195312 L 10.5 12.330078 A 5 5 0 0 1 4.4648438 11.537109 A 5 5 0 0 1 3.6699219 5.5 A 5 5 0 0 1 9.2949219 3.1699219 A 5 5 0 0 1 13 8 C 12.9982 9.3381116 12.197184 9.6006344 11 9.8828125 L 11 5 L 10 5 L 10 5.7695312 C 9.4508067 5.2755444 8.7386703 5.0015388 8 5 C 6.3431458 5 5 6.3431458 5 8 C 5 9.6568542 6.3431458 11 8 11 C 8.7384127 10.999 9.4505172 10.7257 10 10.232422 L 10 10.734375 L 10 11 C 12.209139 11 14 9.9231243 14 8 A 6 6 0 0 0 13.240234 5.0761719 A 6 6 0 0 0 9.5527344 2.2050781 A 6 6 0 0 0 7.7714844 2.0058594 z M 8 6 C 9.1045695 6 10 6.8954305 10 8 C 10 9.1045695 9.1045695 10 8 10 C 6.8954305 10 6 9.1045695 6 8 C 6 6.8954305 6.8954305 6 8 6 z "
     id="path2" />
</svg>
